client/public/assets/icons/utility/note.svg

<?xml version="1.0"?><svg xmlns="http://www.w3.org/2000/svg" width="52" height="52" viewBox="0 0 52 52"><path fill="#fff" d="m41.4 39.7l-0.9 0.9c-1 1-2.3 1.5-3.7 1.5h-2.6c-2.4 0-5-1.9-5-5.2v-2.5c0-2 0.9-3.2 1.4-3.9l10.8-11c0.3-0.3 0.6-1 0.6-1.4v-8.3c0-2.6-2.2-4.8-4.8-4.8h-25.6c-2.6 0-4.8 2.4-4.8 4.8h-1.6c-1.8 0-3.2 1.5-3.2 3.3s1.4 3.2 3.2 3.2h1.6v6.5h-1.6c-1.8 0-3.2 1.4-3.2 3.2s1.4 3.2 3.2 3.2h1.6v6.5h-1.6c-1.8 0-3.2 1.5-3.2 3.2 0 1.8 1.4 3.2 3.2 3.2h1.6c0 3.2 2.2 4.8 4.8 4.8h25.6c2.6 0 4.8-2.2 4.8-4.8v-2.1c0-0.5-0.2-0.6-0.6-0.3z m-8.2-22.6c0 0.9-0.7 1.6-1.6 1.6h-16c-0.9 0-1.6-0.7-1.6-1.6v-1.6c0-0.9 0.7-1.6 1.6-1.6h16c0.9 0 1.6 0.7 1.6 1.6v1.6z m-7.2 19.4c0 0.9-0.7 1.6-1.6 1.6h-8.8c-0.9 0-1.6-0.7-1.6-1.6v-1.6c0-0.9 0.7-1.6 1.6-1.6h8.8c0.9 0 1.6 0.7 1.6 1.6v1.6z m2.4-9.7c0 0.9-0.7 1.6-1.6 1.6h-11.2c-0.9 0-1.6-0.7-1.6-1.6v-1.6c0-0.9 0.7-1.6 1.6-1.6h11.2c0.9 0 1.6 0.7 1.6 1.6v1.6z m21.1-4.4l-1-1c-0.6-0.6-1.6-0.6-2.2 0l-12.2 12.6c-0.1 0-0.1 0.2-0.1 0.2v2.7c0 0.2 0 0.4 0.2 0.4h2.6c0.1 0 0.2-0.1 0.3-0.1l12.3-12.4c0.8-0.7 0.8-1.7 0.1-2.4z"></path></svg>

<?xml version="1.0" encoding="utf-8"?>
<!-- Generator: Adobe Illustrator 18.1.1, SVG Export Plug-In . SVG Version: 6.00 Build 0)  -->
<svg version="1.1" id="Layer_1" xmlns="http://www.w3.org/2000/svg" xmlns:xlink="http://www.w3.org/1999/xlink" x="0px" y="0px"
	 width="52px" height="52px" viewBox="0 0 52 52" enable-background="new 0 0 52 52" xml:space="preserve">
<path fill="#FFFFFF" d="M41.4,39.7l-0.9,0.9c-1,1-2.3,1.5-3.7,1.5h-2.6c-2.4,0-5-1.9-5-5.2v-2.5c0-2,0.9-3.2,1.4-3.9l10.8-11
	c0.3-0.3,0.6-1,0.6-1.4V9.8C42,7.2,39.8,5,37.2,5H11.6C9,5,6.8,7.4,6.8,9.8H5.2C3.4,9.8,2,11.3,2,13.1s1.4,3.2,3.2,3.2h1.6v6.5H5.2
	C3.4,22.8,2,24.2,2,26s1.4,3.2,3.2,3.2h1.6v6.5H5.2c-1.8,0-3.2,1.5-3.2,3.2c0,1.8,1.4,3.2,3.2,3.2h1.6c0,3.2,2.2,4.8,4.8,4.8H30h7.2
	c2.6,0,4.8-2.2,4.8-4.8V40C42,39.5,41.8,39.4,41.4,39.7z M33.2,17.1c0,0.9-0.7,1.6-1.6,1.6h-16c-0.9,0-1.6-0.7-1.6-1.6v-1.6
	c0-0.9,0.7-1.6,1.6-1.6h16c0.9,0,1.6,0.7,1.6,1.6V17.1z M26,36.5c0,0.9-0.7,1.6-1.6,1.6h-8.8c-0.9,0-1.6-0.7-1.6-1.6v-1.6
	c0-0.9,0.7-1.6,1.6-1.6h8.8c0.9,0,1.6,0.7,1.6,1.6V36.5z M28.4,26.8c0,0.9-0.7,1.6-1.6,1.6H15.6c-0.9,0-1.6-0.7-1.6-1.6v-1.6
	c0-0.9,0.7-1.6,1.6-1.6h11.2c0.9,0,1.6,0.7,1.6,1.6V26.8z"/>
<path fill="#FFFFFF" d="M49.5,22.4l-1-1c-0.6-0.6-1.6-0.6-2.2,0L34.1,34C34,34,34,34.2,34,34.2v2.7c0,0.2,0,0.4,0.2,0.4h2.6
	c0.1,0,0.2-0.1,0.3-0.1l12.3-12.4C50.2,24.1,50.2,23.1,49.5,22.4z"/>
</svg>
